svg/u0036_20e3.svg

<svg viewBox="0 0 128 128" xmlns="http://www.w3.org/2000/svg">
  <g>
    <path d="M116.46,3.96h-104c-4.42,0-8,3.58-8,8v104c0,4.42,3.58,8,8,8h104c4.42,0,8-3.58,8-8v-104 C124.46,7.54,120.88,3.96,116.46,3.96z" fill="#427687"/>
    <path d="M122.16,6.26c-1.54-1.46-3.58-2.28-5.7-2.3h-104c-4.42,0-8,3.58-8,8v104 c0.02,2.12,0.84,4.16,2.3,5.7l16.8-16.8h76c3.26-0.01,5.89-2.64,5.9-5.9v-76L122.16,6.26z" fill="#8CAFBF"/>
    <path d="M40.16,12.86c0-2.3-1.6-3-10.8-2.7c-7.7,0.3-11.5,1.2-13.8,4 s-2.9,8.5-3,15.3c0,4.8,0,9.3,2.5,9.3c3.4,0,3.4-7.9,6.2-12.3C26.66,17.76,40.16,15.86,40.16,12.86z" opacity="0.5" fill="#B4E1ED" enable-background="new "/>
    <path d="M76.96,36.76c0.02,0.76-0.58,1.38-1.34,1.4c-0.02,0-0.04,0-0.06,0c-6.3,0.1-11.4,1.8-15.2,5.2 c-3.03,2.76-5.13,6.39-6,10.4c-0.22,0.72,0.18,1.48,0.9,1.7c0.41,0.13,0.85,0.05,1.2-0.2c3.26-2.25,7.14-3.4,11.1-3.3 c6,0,10.7,2.1,14.2,6.3s5.2,9.7,5.2,16.4c0,6.9-2,12.5-6.1,16.8s-9.4,6.4-16,6.4c-6.37,0.2-12.46-2.57-16.5-7.5 c-4.2-5-6.3-11.6-6.3-19.7v-3.9c0-11.9,2.9-21.2,8.7-28c5.5-6.4,12.6-9.8,24.1-10.1c1.02-0.01,1.86,0.79,1.9,1.8 C76.76,30.56,76.96,36.76,76.96,36.76z M61.26,61.56c-0.1,0-0.2,0-0.2,0.1c-0.9,0.4-1.8,0.8-2.6,1.2c-3.23,2.02-5.17,5.59-5.1,9.4 c0,5,1.1,9,3.2,12c1.76,2.83,4.87,4.53,8.2,4.5c3.12,0.1,6.1-1.32,8-3.8c2-2.5,2.9-5.8,2.9-9.9c0.16-3.58-0.9-7.1-3-10 C70.06,61.66,66.26,60.46,61.26,61.56z" fill="#FAFAFA"/>
  </g>
</svg>

<svg viewBox="0 0 128 128" xmlns="http://www.w3.org/2000/svg">
  <defs/>
  <path d="M116.46,3.96 L12.46,3.96 C8.04,3.96 4.46,7.54 4.46,11.96 L4.46,115.96 C4.46,120.38 8.04,123.96 12.46,123.96 L116.46,123.96 C120.88,123.96 124.46,120.38 124.46,115.96 L124.46,11.96 C124.46,7.54 120.88,3.96 116.46,3.96 Z" fill="#427687"/>
  <path d="M122.16,6.26 C120.62,4.8 118.58,3.98 116.46,3.96 L12.46,3.96 C8.04,3.96 4.46,7.54 4.46,11.96 L4.46,115.96 C4.48,118.08 5.3,120.12 6.76,121.66 L23.56,104.86 L99.56,104.86 C102.82,104.85 105.45,102.22 105.46,98.96 L105.46,22.96 L122.16,6.26 Z" fill="#8CAFBF"/>
  <path d="M40.16,12.86 C40.16,10.56 38.56,9.86 29.36,10.16 C21.66,10.46 17.86,11.36 15.56,14.16 C13.26,16.96 12.66,22.66 12.56,29.46 C12.56,34.26 12.56,38.76 15.06,38.76 C18.46,38.76 18.46,30.86 21.26,26.46 C26.66,17.76 40.16,15.86 40.16,12.86 Z" fill="#B4E1ED" opacity="0.5"/>
  <path d="M76.96,36.76 C76.98,37.52 76.38,38.14 75.62,38.16 C75.6,38.16 75.58,38.16 75.56,38.16 C69.26,38.26 64.16,39.96 60.36,43.36 C57.33,46.12 55.23,49.75 54.36,53.76 C54.14,54.48 54.54,55.24 55.26,55.46 C55.67,55.59 56.11,55.51 56.46,55.26 C59.72,53.01 63.6,51.86 67.56,51.96 C73.56,51.96 78.26,54.06 81.76,58.26 C85.26,62.46 86.96,67.96 86.96,74.66 C86.96,81.56 84.96,87.16 80.86,91.46 C76.76,95.76 71.46,97.86 64.86,97.86 C58.49,98.06 52.4,95.29 48.36,90.36 C44.16,85.36 42.06,78.76 42.06,70.66 L42.06,66.76 C42.06,54.86 44.96,45.56 50.76,38.76 C56.26,32.36 63.36,28.96 74.86,28.66 C75.88,28.65 76.72,29.45 76.76,30.46 C76.76,30.56 76.96,36.76 76.96,36.76 Z M61.26,61.56 C61.16,61.56 61.06,61.56 61.06,61.66 C60.16,62.06 59.26,62.46 58.46,62.86 C55.23,64.88 53.29,68.45 53.36,72.26 C53.36,77.26 54.46,81.26 56.56,84.26 C58.32,87.09 61.43,88.79 64.76,88.76 C67.88,88.86 70.86,87.44 72.76,84.96 C74.76,82.46 75.66,79.16 75.66,75.06 C75.82,71.48 74.76,67.96 72.66,65.06 C70.06,61.66 66.26,60.46 61.26,61.56 Z" fill="#FAFAFA"/>
</svg>
